svgs/sharp-light/shutters.svg

<svg xmlns="http://www.w3.org/2000/svg" viewBox="0 0 512 512"><!--! Font Awesome Pro 6.6.0 by @fontawesome - https://fontawesome.com License - https://fontawesome.com/license (Commercial License) Copyright 2024 Fonticons, Inc. --><path d="M16 32L0 32 0 48l0 64 0 16 16 0 480 0 16 0 0-16 0-64 0-16-16 0L16 32zM32 96l0-32 448 0 0 32L32 96zM8 448L0 480l33 0 446 0 33 0-8-32-16-64-33 0 16 64L41 448l16-64-33 0L8 448zM24 256L8 320 0 352l33 0 446 0 33 0-8-32-16-64-33 0 16 64L41 320l16-64-33 0zm488-32l-8-32-8-32-33 0 8 32L41 192l8-32-33 0L8 192 0 224l33 0 446 0 33 0z"/></svg>

<svg xmlns="http://www.w3.org/2000/svg" viewBox="0 0 512 512"><!--! Font Awesome Pro 6.4.0 by @fontawesome - https://fontawesome.com License - https://fontawesome.com/license (Commercial License) Copyright 2023 Fonticons, Inc. --><path d="M16 32H0V48v64 16H16 496h16V112 48 32H496 16zM32 96V64H480V96H32zM8 448L0 480H33 479h33l-8-32-16-64H455l16 64H41l16-64H24L8 448zM24 256L8 320 0 352H33 479h33l-8-32-16-64H455l16 64H41l16-64H24zm488-32l-8-32-8-32H463l8 32H41l8-32H16L8 192 0 224H33 479h33z"/></svg>
